!!!!SEGMENT: pl-wumfc--n53446--001-010_moniuszko-stanislaw--hrabina-no-8-chor-balowy.krn
!!!cenid: 18xx:4097
!!!COM: Moniuszko, Stanisław
!!!COM-rismID: pe30008351
!!!CDT: 1819/05/05-1872/06/04
!!!CNT: Polish
!!!OPR: Hrabina
!!!OTL: No. 8. Chór balowy
!!!OMV: 010
!!!PDT:
!!!AGN:
!!!YEC: Copyright 2022 Narodowy Instytut Fryderyka Chopina (https://polishscores.org)
!!!YEM: License CC-BY-4.0 (https://creativecommons.org/licenses/by/4.0)
!!!SMS-siglum: PL-Wumfc
!!!SMS-shelfmark: N53446
!!!SMS-shelfwork: 001-010 M
!!!SMS-variant:
!!!SMS-altvar:
!!!NIFC-rismSourceID: 1001165649
!!!NIFC-rismChildID: 1001165649
!!!NIFC-islandoraID: pl-wumfc:6884
!!!URL-pdf-islandora: https://repozytorium.nifc.pl/islandora/object/pl-wumfc%3A6884/datastream/PDF/view
!!!URL-scan: https://polish.musicsources.pl/pl/lokalizacje/galeria/druki-muzyczne/12579 @EN{Scan on Polish Music Sources Website} @PL{Skany w portalu Dziedzictwo Muzyki Polskiej w otwartym dostępie}
!!!IIIF:
!!!ONB-nifc:
!!!AIN: 1 piano
!!!key: B-
**kern	**kern	**dynam
*part1	*part1	*
*staff2	*staff1	*
*I"[Piano.]	*I"[Piano.]	*
*Ipiano	*Ipiano	*
*ICklav	*ICklav	*
*clefF4	*clefG2	*
*k[b-e-]	*k[b-e-]	*
*B-:	*B-:	*
*M3/4	*M3/4	*
=1	=1	=1
!!LO:TX:B:a:t=Allegro.
4FF'/	4F'/	p
4BB-'/	4B-'/	.
4AA'/	4A'/	.
=2	=2	=2
4C'/	4c'/	.
4BB-'/	4B-'/	.
4E-'\	4e-'/	.
=3	=3	=3
4D'\	4d'/	.
4F'\	4f'/	<
4En'\	4en'/	.
=4	=4	=4
4G'\	4g'/	.
4F'\	4f'/	.
4c'\	4cc'\	.
=5	=5	=5
4B-'\	4b-'\	.
4d'\	4dd'\	.
4A'\	4a'/	.
=6	=6	=6
4B-'\	4b-'\	.
!	!	!LO:HP:b:t=dim.
4F#X'\	4f#X'/	>
4G'\	4g'/	.
=7	=7	=7
4En'\	4en'/	.
4F'\	4f'/	.
4C#X'/	4c#X'/	.
!!LO:LB:g=original
=8	=8	=8
4D'\	4d'/	.
4BB-'/	4B-'/	.
4GG'/	4G'/	.
=9	=9	=9
*ped	*	*
2.FF/	2.F/	.
=10	=10	=10
(2.d 2.B- 2.F 2.D\	(2.ff 2.b- 2.f\	.
*Xped	*	*
=11	=11	=11
2.c 2.A 2.F 2.C\	2.ff 2.ee- 2.a 2.f\	.
=12	=12	=12
2.B- 2.F 2.D 2.BB-\	2.ff 2.dd 2.b- 2.f\	.
=13	=13	=13
*	*^	*
4F 4C 4AA/)	4ff 4cc/)	(2.f\	.
4r	4r	.	.
4r	4r	.	.
*	*v	*v	*
=14	=14	=14
2.r	8g/L	.
.	8f/	.
.	8c/	.
.	8f/	.
.	8a/	.
.	8cc/J	.
=15	=15	=15
2.r	2ff\)	.
.	4r	.
=16	=16	=16
2.r	2.r	.
=17	=17	=17
4C'/	4c'/	.
4E-'\	4e-'/	.
4D'\	4d'/	.
!!LO:LB:g=original
=18	=18	=18
4F'\	4f'/	.
4E-'\	4e-'/	.
4G'\	4g'/	.
=19	=19	=19
4F#X'\	4f#X'/	<
4A'\	4a'/	.
4G'\	4g'/	.
=20	=20	=20
4c'\	4cc'\	.
4Bn'\	4bn'\	.
4d'\	4dd'\	.
=21	=21	=21
4c'\	4cc'\	.
4e-'\	4ee-'\	.
4B-X'\	4b-X'\	.
=22	=22	=22
4c'\	4cc'\	.
!	!	!LO:HP:b:t=dim.
4G'\	4g'/	>
4A'\	4a'/	.
=23	=23	=23
4F'\	4f'/	.
4G'\	4g'/	.
4D'\	4d'/	.
=24	=24	=24
4E-'\	4e-'/	.
4C'/	4c'/	.
4AA'/	4A'/	.
=25	=25	=25
*ped	*	*
2.FF/	2.F/	.
=26	=26	=26
(2.c 2.F 2.E-\	(2.ff 2.a 2.f\	.
*Xped	*	*
=27	=27	=27
2.B- 2.F 2.D\	2.ff 2.b- 2.g 2.f\	.
=28	=28	=28
2.A 2.F 2.C\	2.ff 2.ee- 2.f\	.
!!LO:LB:g=original
=29	=29	=29
*	*^	*
4B- 4F 4BB-\)	4ff 4dd/)	(2.f\	.
4r	4r	.	.
4r	4r	.	.
*	*v	*v	*
=30	=30	=30
2.r	8g/L	.
.	8f/	.
.	8d/	.
.	8f/	.
.	8b-/	.
.	8dd/J	.
=31	=31	=31
2.r	2ff\)	.
.	4r	.
=32	=32	=32
2.r	2.r	.
=33	=33	=33
2.r	(4ff\	.
.	4een\	.
.	4ee-X\	.
=34	=34	=34
2.B- 2.F 2.D\	4dd\	.
.	4cc\	.
.	4b-\	.
=35	=35	=35
.	8qcc/	.
2.B- 2.G 2.E-\	4b-\	.
.	4a/	.
.	4b-\	.
=36	=36	=36
2.B- 2.G 2.En\	4dd\	.
.	4cc\	.
.	4b-\)	.
=37	=37	=37
.	8qb-/	.
2.d 2.B- 2.F\	(4ff\	.
.	4een\	.
.	4ee-X\	.
!!LO:LB:g=original
=38	=38	=38
2.d 2.B- 2.F#X\	4dd\	.
.	4cc\	.
.	4b-\)	.
=39	=39	=39
.	8qcc/	.
2.d 2.B- 2.G\	4b-\	.
.	4a/	.
.	4b-\	.
=40	=40	=40
2.d 2.B- 2.A-X\	4dd\	.
.	4cc\	.
.	4b-\	.
=41	=41	=41
*ped	*	*
4G 4GG/	[2.bb- [2.ee- [2.b-\	f
4B- 4BB-\	.	.
4e- 4E-\	.	.
=42	=42	=42
*Xped	*	*
4g 4G\	4bb-] 4ee-] 4b-\]	.
4e- 4B- 4G'\	4aa 4ee- 4b-'\	.
4e- 4B- 4G'\	4gg 4ee- 4b-'\	.
=43	=43	=43
4e- 4c 4A'\	4ff 4cc'\	.
4e- 4c 4A'\	4ff#X 4cc'\	.
4e- 4c 4A'\	4gg 4cc'\	.
=44	=44	=44
4e- 4c 4A'\	4aa 4cc'\	.
4e- 4c 4A 4G'\	4gg 4cc'\	.
4e- 4c 4A 4G'\	4ee- 4cc'\	.
=45	=45	=45
*^	*^	*
2.d/	4F#X\	[2.ddd/	4dd\	.
.	4A\	.	8een\L	.
.	.	.	8ff#X\	.
.	4D\	.	8gg\	.
.	.	.	8aa\J	.
*v	*v	*	*	*
*	*v	*v	*
!!LO:PB:g=original
=46	=46	=46
4d 4G'\	4ddd] 4bb- 4dd\	.
4d 4A 4G'\	4ccc 4aa 4dd\	.
4d 4B- 4G'\	4bb- 4gg 4dd\	.
=47	=47	=47
4E- 4EE-/	4bb- 4gg 4b-\	.
4E- 4EE-/	4aa 4ff#X 4a\	.
4E- 4EE-/	4ccc 4aa 4cc\	.
=48	=48	=48
4E- 4EE-/	4bb- 4gg 4b-\	.
4E- 4EE-/	4aa 4ffn 4a\	.
4E- 4EE-/	4gg 4ee- 4g\	.
=49	=49	=49
!	!LO:TX:i:a:t=meno mosso	!
2.d 2.B- 2.F\	4ff 4dd 4f\	fp
.	8g/L	.
.	8a/	.
.	8b-/	.
.	8cc/J	.
=50	=50	=50
2.en 2.B- 2.G 2.F\	4dd'\	.
.	4cc'\	.
.	4b-'\	.
=51	=51	=51
2e-X 2c 2F\	(8a\L	.
.	8b-\	.
.	8cc\	.
.	8dd\	.
4r	8ee-\	.
.	8ff\J)	.
=52	=52	=52
*	*^	*
4r	2.gg/	4r	.
4E- 4EE-/	.	4cc 4g\	.
4E- 4EE-/	.	4cc 4g\	.
!!LO:LB:g=original
=53	=53	=53	=53
4c 4D'\	(4gg/	4a\	.
4r	8ff#X/L)	4r	.
.	8dd/	.	.
4r	8cc#X/	4r	.
.	8dd/J	.	.
=54	=54	=54	=54
4c 4D#X'\	(4ff#X/	4a\	.
4r	8ffn/L)	4r	.
.	8cc/	.	.
4r	8bn/	4r	.
.	8cc/J	.	.
=55	=55	=55	=55
4c 4En'\	(4ff/	4a\	.
4r	8een/L)	4r	.
.	8cc/	.	.
4r	8bn/	4r	.
.	8cc/J	.	.
=56	=56	=56	=56
4c 4F'\	4ff/	4a\	.
4r	8ee-X/L	4r	.
.	8dd/	.	.
4r	8ee-/	4r	.
.	8ff/J	.	.
*	*v	*v	*
=57	=57	=57
4BB-/	(8dd\L	p
.	8ff\	.
4d 4B- 4F\	8een\	.
.	8ff\	.
4d 4B- 4F\	8gg\	.
.	8ff\J	.
=58	=58	=58
4BB-/	8een\L	.
.	8ff\	.
4c 4A 4F\	8ee-X\	.
.	8ff\	.
4e- 4A 4F\	8cc\	.
.	8ff\J)	.
!!LO:LB:g=original
=59	=59	=59
4BB-/	(8dd\L	.
.	8ff\	.
4d 4B- 4F\	8een\	.
.	8ff\	.
4d 4B- 4F\	8gg\	.
.	8ff\J	.
=60	=60	=60
4BB-/	8een\L	.
.	8ff\	.
4c 4A 4F\	8ee-X\	.
.	8ff\	.
4e- 4A 4F\	8cc\	.
.	8ff\J)	.
=61	=61	=61
4BB-/	(8dd\L	<
.	8ff\	.
4d 4B- 4F\	8bb-\	.
.	8ccc\J	[
4d 4B- 4F\	[4ddd\)	.
=62	=62	=62
*^	*	*
4r	2.G\	(8ddd\L]	.
.	.	8ccc#X\	.
4c#X 4B-/	.	8bb-\	.
.	.	8gg\J)	.
4c# 4B-/	.	[4een\	.
=63	=63	=63	=63
4r	4F\	8ee\L]	.
.	.	(8ff\	.
4d 4B-/	4r	8gg\	.
.	.	8ff\J	.
4d 4B-/	4r	[4bb-\)	.
*v	*v	*	*
=64	=64	=64
4FF/	(8bb-\L]	.
.	8aa\	.
4e- 4A 4F\	8ccc\	.
.	8gg\	.
4c 4A 4F\	8ff\	.
.	8ee-\J)	.
!!LO:LB:g=original
=65	=65	=65
4BB-/	(8dd\L	.
.	8ff\	.
4d 4B- 4F\	8een\	.
.	8ff\	.
4d 4B- 4F\	8gg\	.
.	8ff\J	.
=66	=66	=66
4BB-/	8een\L	.
.	8ff\	.
4c 4A 4F\	8ee-X\	.
.	8ff\	.
4e- 4A 4F\	8cc\	.
.	8ff\J	.
=67	=67	=67
4BB-/	8dd\L	.
.	8ff\	.
4d 4B- 4F\	8een\	.
.	8ff\	.
4d 4B- 4F\	8gg\	.
.	8ff\J	.
=68	=68	=68
4BB-/	8een\L	.
.	8ff\	.
4c 4A 4F\	8ee-X\	.
.	8ff\	.
4e- 4A 4F\	8cc\	.
.	8ff\J)	.
=69	=69	=69
4BB-/	(8dd\L	.
.	8ff\	.
4d 4B- 4F\	8bb-\	.
.	8ddd\J	.
4d 4B-\	[4fff [4ff^^\)	.
=70	=70	=70
*^	*	*
4r	2G\	(8fff]L 8ff\]	.
.	.	8eeen\	.
4c#X 4B-/	.	8ddd-X\	.
.	.	8bb-\J	.
4c# 4B-/	4En\	[4gg^^\	.
!!LO:LB:g=original
=71	=71	=71	=71
4r	2.F\	8gg\L]	.
.	.	8ff\	.
4d 4B-/	.	8bb-\	.
.	.	8ccc\	.
!	!	!	!LO:HP:b:t=cre-scen-do:ext2=cd
4f 4B-/	.	8eee-\	<
.	.	8ddd\J	.
=72	=72	=72	=72
4r	2.F\	8ccc\L	.
.	.	8aa\	.
4e- 4c/	.	8ff\	.
.	.	8ee-\	.
4c 4A/	.	8cc\	.
.	.	8ff\J)	.
*v	*v	*	*
=73	=73	=73
4B- 4F 4D 4BB-\	(8dd\L	.
.	8ee-\	.
4B- 4F 4D 4BB-\	8ff\	.
.	8gg\	.
4B- 4F 4D 4BB-\	8aa\	.
.	8bb-\J	.
=74	=74	=74
.	8qaa/	.
4c#X 4B- 4G 4En\	8gg\L	.
.	8ff#X\	[
4c# 4B- 4G 4E\	8gg\	.
.	8aa\	.
4c# 4B- 4G 4E\	8bb-\	.
.	8cccn\J	.
=75	=75	=75
4d 4B- 4F\	8ddd\L	f
.	8fffn\	.
4r	8eee-X\	.
.	8ddd\	.
4r	8ccc\	.
.	8bb-\J	.
!!LO:PB:g=original
=76	=76	=76
2.A 2.E- 2.C 2.FF/	8aa\L	.
.	8gg\	.
.	8ff\	.
.	8ee-\	.
.	8dd\	.
.	8cc\J)	.
=77	=77	=77
.	8qb-/	.
4B- 4D 4BB-\	(4bb-^^\	fp
4B- 4E- 4C\	8aa\L	.
.	8bb-\	.
4B- 4F 4D\	8aa-X\	.
.	8bb-\J	.
=78	=78	=78
4B- 4E-\	8gg\L	.
.	8bb-\	.
4e- 4B- 4G\	8ee-\	.
.	8gg\	.
4f 4c 4An\	8ff\	.
.	8ee-\J	.
=79	=79	=79
4f 4d 4B-\	8dd\L	.
.	8ff\	.
4f 4d 4B-\	8b-\	.
.	8dd\	.
4en 4c\	8cc\	.
.	8b-\J	.
=80	=80	=80
4F 4FF/	8a\L	.
.	8cc\	.
4e-X 4c 4F\	8ee-\	.
.	8ff\	.
4e- 4c 4F\	8aa\	.
.	8ccc\J)	.
!!LO:LB:g=original
=81	=81	=81
4B- 4F 4D 4BB-\	(4bb-^\	fp
4B- 4E- 4C\	8aa\L	.
.	8bb-\	.
!	!	!LO:HP:b:t=di-mi-nu-en-do:ext2=ud
4B- 4F 4D\	8aa-X\	>
.	8bb-\J	.
=82	=82	=82
4B- 4G-X 4E-\	8gg-X\L	.
.	8bb-\	.
4B- 4G- 4BB-\	8ee-\	.
.	8gg-\	.
4B- 4G- 4E-\	8ff\	.
.	8ee-\J	.
=83	=83	=83
4BB-/	8dd-X\L	.
.	8ff\	.
4d-X 4B-\	8b-\	.
.	8dd-\	.
4en 4B- 4G\	8cc\	.
.	8b-\J	.
=84	=84	=84
4F\	8a\L	.
.	8cc\	.
4f 4A\	8ff\	.
.	8ee-X\	]]
.	8qee-/	.
(8fL 8A\	8ddn\	.
8e-X\J)	8cc\J)	.
=85	=85	=85
!	!	!LO:HP:b:t=di-mi-nu-en-do:ext2=ud
4BB-/	(8b-\L	>
.	8ff\	.
4d 4B- 4F\	8gg\	.
.	8ff\	.
4d 4B- 4F\	8bb-\	.
.	8ff\J	.
!!LO:LB:g=original
=86	=86	=86
4BB-/	8dd\L	.
.	8ff\	.
4d 4B- 4F\	8een\	.
.	8ff\	.
4d 4B- 4F\	8bb-\	.
.	8ff\J	.
=87	=87	=87
4BB-/	8dd\L	.
.	8ff\	.
4d 4B- 4F\	8een\	.
.	8ff\	.
4d 4B- 4F\	8bb-\	.
.	8ff\J	.
=88	=88	=88
4d: 4F: 4BB-:\	8dd\L	]
.	8ff\	.
4c#X 4En\	8gg\	.
.	8ff\	.
4cn 4E-X\	8aa\	.
.	8ff\J)	.
=89	=89	=89
*	*^	*
8B- 8D 8BB-\	8bb-\	4ryy	pp
8r	8r	.	.
4r	8f 8d 8B-'</	8ryy	.
.	8r	8ryy	.
8FF'/	4f 4d^/	8B-\	.
8r	.	8rc	.
=90	=90	=90	=90
8BB-'<\	4r	4ryy	.
8rGG	.	.	.
4rGG	8f 8d 8B-< 8F</	8ryy	.
.	8r	8ryy	.
8FF'<\	4f 4d^/	8B-\	.
8r	.	8rc	.
!!LO:LB:g=original
=91	=91	=91	=91
8BB-\	4r	4ryy	.
8rGG	.	.	.
4rGG	8f 8d 8B-< 8F</	8ryy	.
.	8r	8ryy	.
8FF\	4f 4d^/	8B-\	.
8r	.	8rc	.
=92	=92	=92	=92
8BB-\	4r	4ryy	.
8rGG	.	.	.
4rGG	8f 8d 8B-< 8F</	8ryy	.
.	8r	8ryy	.
8FF\	4f 4d^/	8B-\	.
8r	.	8rc	.
*	*v	*v	*
=93	=93	=93
!	!LO:TX:i:b:t=dolcissimo	!
8BB-/	8f 8d/	.
8r	8r	.
8B- 8F\	(8gL 8e-'/	.
8r	8a 8f'/	.
8D\	8b- 8g'/	.
8r	8ccJ 8a'/)	.
=94	=94	=94
8BB-/	8dd 8b-\	.
8r	8r	.
8d 8B-\	8cc 8a/	.
8r	8r	.
8F\	8b- 8g/	.
8r	8r	.
=95	=95	=95
8C/	(8aL 8f'\	.
8r	8b- 8g'\	.
8e- 8A\	8cc 8a'\	.
8r	8dd 8b-'\	.
8F\	8ee- 8cc'\	.
8r	8ffJ 8dd'\	.
!!LO:LB:g=original
=96	=96	=96
8C/	2gg 2ee-\)	.
8r	.	.
8e- 8B-\	.	.
8r	.	.
8G\	4gg 4ee- 4b-\	.
8r	.	.
=97	=97	=97
8F 8FF/	(4gg 4ee- 4b-^\	.
8r	.	.
8e- 8c\	8gg-X\L	.
8r	8ee-\	.
8F\	8cc\	.
8r	8a\J)	.
=98	=98	=98
8FF/	(4ff 4cc 4a^\	p
8r	.	.
8e-X 8c\	8een\L	.
8r	8ee-X\	.
8F\	8cc\	.
8r	8a\J)	.
=99	=99	=99
8BB-/	(8cc\L	.
8r	8b-\	.
8d 8B-\	8a\	.
8r	8b-\	.
8F\	8dd\	.
8r	8b-\J)	.
=100	=100	=100
8D\	4f/	.
8r	.	.
8d 8B-\	4r	.
8r	.	.
8F\	8.f/L	.
8r	.	.
.	16f/Jk	.
!!LO:PB:g=original
=101	=101	=101
8BB-/	8f 8d'/	.
8r	8r	.
8B- 8F\	(8gL 8e-'/	.
8r	8a 8f'/	.
8FF/	8b- 8g'/	.
8r	8ccJ 8a'/)	.
=102	=102	=102
8BB-/	8dd 8b-\	.
8r	8r	.
8d 8B-\	8cc 8a\	.
8r	8r	.
8F\	8b- 8g/	.
8r	8r	.
=103	=103	=103
8C/	(8aL 8f'\	.
8r	8b- 8g'\	.
8e- 8A\	8cc 8a'\	.
8r	8dd 8b-'\	.
8F\	8ee- 8cc'\	.
8r	8ffJ 8dd'\)	.
=104	=104	=104
*	*^	*
8C/	2gg 2ee-\	2ryy	.
8r	.	.	.
8e- 8B-\	.	.	.
8r	.	.	.
8G\	8gg/L	4ee- 4b-\	.
8r	8gg/J	.	.
*	*v	*v	*
=105	=105	=105
8F 8FF/	(4gg 4ee- 4a^\	.
8r	.	.
8e- 8c\	8gg-X\L	.
8r	8ee-\	.
8F\	8cc\	.
8r	8a\J)	.
!!LO:LB:g=original
=106	=106	=106
8FF/	(4ff 4cc 4a^\	.
8r	.	.
8c 8A\	8een\L	.
8r	8ee-X\	.
8F\	8cc\	.
8r	8a\J)	.
=107	=107	=107
8BB-/	(8cc\L	.
8r	8b-\	.
8d 8B-\	8a\	.
8r	8b-\	.
8F\	8dd\	.
8r	8f\J)	.
=108	=108	=108
8BB-/	2b-\	.
8r	.	.
8f 8d 8B-\	.	.
8r	.	.
8G\	8b-L 8g/	.
8r	8aJ 8f/	.
=109	=109	=109
8C 8CC/	8g 8en'/	.
8r	8r	.
8c\	8aL 8f'/	.
8r	8b- 8g'/	.
(4C^/	8cc 8a'/	.
.	8ddJ 8b-'/	.
=110	=110	=110
8CC/)	8een 8cc\	.
8r	8r	.
8d 8B- 8G\	8dd 8b-\	.
8r	8r	.
8en 8c\	8cc 8b-\	.
8r	8r	.
!!LO:LB:g=original
=111	=111	=111
8C/	8cc/ 8a/	<
8r	8r	.
8f 8c\	(8ddL 8b-'\	.
8r	8een 8cc'\	.
8A\	8ff 8dd'\	.
8r	8ggJ 8ee'\)	[[
=112	=112	=112
8C/	2aa 2ff\	.
8r	.	.
8f 8A\	.	.
8r	.	.
8f 8c\	4aa 4cc\	.
8r	.	.
=113	=113	=113
*	*^	*
!	!	!LO:TUP:b:problem:klamra łukowa	!
8C/	(4aa/	12cc\L	>
.	.	12dd\	.
8r	.	.	.
.	.	12cc\J	.
8f 8d\	8gg/)	8bn\	.
8r	8r	8ryy	.
8f 8d 8G\	8dd/	8b 8g\	.
8r	8r	8ryy	.
=114	=114	=114	=114
8C/	(12ff/L	(4dd\	]
.	12gg/	.	.
8r	.	.	.
.	12ff/J	.	.
8c 8G\	8een/)	8cc\)	.
8r	8r	8ryy	.
8C/	[4gg/	(4b-X\	.
8r	.	.	.
=115	=115	=115	=115
8FF/	8gg/]	8a\)	.
8r	8r	8ryy	.
8f 8c 8F\	8ff/	8a\	.
8r	8r	8ryy	.
8f 8d 8B- 8F\	8dd/	8b-\	.
8r	8r	8ryy	.
*	*v	*v	*
!!LO:LB:g=original
=116	=116	=116
8FF/	(2cc 2a/	.
8r	.	.
8c 8A 8F\	.	.
8r	.	.
(4C^/	4a 4f/)	.
=117	=117	=117
8CC/)	8g 8en'/	.
8r	8r	.
8c\	(<8aL 8f'/	.
8r	8b- 8g'/	.
(4C^/	8cc 8a'/	.
.	8ddJ 8b-'/	.
=118	=118	=118
8CC/)	8een 8cc\)	.
8r	8r	.
8d 8B- 8G\	8dd 8b-\	.
8r	8r	.
8en 8c\	8cc 8b-\	.
8r	8r	.
=119	=119	=119
8C/	8cc 8a\	.
8r	8r	<
8f 8c\	(8ddL 8b-'\	.
8r	8een 8cc'\	.
8A\	8ff 8dd'\	.
8r	8ggJ 8ee'\	[[
=120	=120	=120
*	*^	*
8C/	2aa 2ff\)	2ryy	.
8r	.	.	.
8f 8A\	.	.	.
8r	.	.	.
(4c^\	4aa/	8cc\L	.
.	.	8cc\J	.
!!LO:LB:g=original
=121	=121	=121	=121
8C/)	(4aa/	12cc\L	>
.	.	12dd\	.
8r	.	.	.
.	.	12cc\J	.
8f 8d\	8gg/)	8bn\	.
8r	8r	8r	]
8G\	8dd 8b\	4ryy	.
8r	8r	.	.
=122	=122	=122	=122
8C/	(12ff/L	(4dd\	.
.	12gg/	.	.
8r	.	.	.
.	12ff/J	.	.
8c 8G\	8een/)	8cc\)	.
8r	8r	8ryy	.
8C/	8gg 8b-X\	4ryy	.
8r	8r	.	.
*	*v	*v	*
=123	=123	=123
4f 4c 4F\	4ff 4a\	<
.	8qgg/	.
4f 4G 4F\	4ff 4b-\	.
.	8qgg/	.
4f 4G#X 4F\	4ff 4bn\	.
=124	=124	=124
.	8qgg/	.
4f 4A 4F\	4ff 4cc\	.
.	8qgg/	.
4f 4B- 4F\	4ff 4dd-X\	.
.	8qgg/	.
4f 4Bn 4F\	4ff 4ddn 4a-X\	.
=125	=125	=125
.	(16qqgg/LL	.
.	16qqff/JJ	.
8FF/	8f/)	.
8r	8r	.
8e- 8c\	8g'/L	p <
8r	8an 8f'/	.
8F\	8b- 8g'/	.
8r	8ccJ 8a'/	[[
!!LO:PB:g=original
=126	=126	=126
8BB-/	8dd 8b-\	.
8r	8r	.
8d 8B-\	8cc 8a\	.
8r	8r	.
8F\	8b- 8g/	.
8r	8r	.
=127	=127	=127
8C/	(8aL 8f'\	.
8r	8b- 8g'\	.
8e- 8A\	8cc 8a'\	.
8r	8dd 8b-'\	.
8F\	8ee- 8cc'\	.
8r	8ffJ 8dd'\	.
=128	=128	=128
8C/	2gg 2ee-\)	.
8r	.	.
8e- 8B-\	.	.
8r	.	.
8G\	4gg 4ee- 4b-\	.
8r	.	.
=129	=129	=129
8F\	(4gg 4ee- 4a^\	p
8r	.	.
8e- 8c\	8gg-X\L	.
8r	8ee-\	.
8F\	8cc\	.
8r	8a\J)	.
=130	=130	=130
8FF/	(4ff 4cc 4a^\	.
8r	.	.
8e-X 8c\	8een\L	.
8r	8ee-X\	.
8F\	8cc\	.
8r	8a\J)	.
!!LO:LB:g=original
=131	=131	=131
8BB-/	(8cc\L	.
8r	8b-\	.
8d 8B-\	8a\	.
8r	8b-\	.
8F\	8dd\	.
8r	8b-\J)	.
=132	=132	=132
8D\	4f/	.
8r	.	.
8d 8B-\	4r	.
8r	.	.
8F\	8fL 8d/	.
8r	8fJ 8d/	.
=133	=133	=133
8BB-/	8f 8d/	.
8r	8r	.
8d 8B-\	(8gL 8e-'/	.
8r	8a 8f'/	.
8F\	8b- 8g'/	.
8r	8ccJ 8a'/)	.
=134	=134	=134
8C/	8dd 8b-\	.
8r	8r	.
8en 8B-\	8cc 8g/	.
8r	8r	.
8G\	8cc 8en/	.
8r	8r	.
=135	=135	=135
8FF/	(8aL 8f'\	<
8r	8b- 8g'\	.
8f 8c\	8cc 8a'\	.
8r	8dd 8b-'\	.
8f 8A\	8ee-X 8cc'\	.
8r	8ffJ 8dd'\	[[
!!LO:LB:g=original
=136	=136	=136
8EE-/	2gg 2ee-\)	.
8r	.	.
8g 8c 8G\	.	.
8r	.	.
8e- 8c\	8ggL 8g\	.
8r	8ggJ 8g\	.
=137	=137	=137
*	*^	*
4c 4D'\	(4gg/	4a\	.
4c 4D'\	8ff#X/L)	4a\	.
.	8dd/	.	.
4r	8cc#X/	4r	.
.	8dd/J	.	.
=138	=138	=138	=138
4c 4D#X'\	(4ff#X/	4a\	.
4c 4D#'\	8ffn/L)	4a\	.
.	8cc/	.	.
4r	8bn/	4r	.
.	8cc/J	.	.
=139	=139	=139	=139
4c 4En'\	(4ff/	4a\	.
4c 4E'\	8een/L)	4a\	.
.	8cc/	.	.
4r	8bn/	4r	.
.	8cc/J	.	.
=140	=140	=140	=140
4c 4F'\	4ff/	4a\	.
.	8qff/	.	.
4f 4c'\	(8ee-X/L	4a\	.
.	8dd/	.	.
4F'\	8ee-/	4r	.
.	8ff/J)	.	.
*	*v	*v	*
!!LO:LB:g=original
=141	=141	=141
4BB-/	(8dd\L	p
.	8ff\	.
4d 4B- 4F\	8een\	.
.	8ff\	.
4d 4B- 4F\	8gg\	.
.	8ff\J	.
=142	=142	=142
4BB-/	8een\L	.
.	8ff\	.
4c 4A 4F\	8ee-X\	.
.	8ff\	.
4e- 4A 4F\	8cc\	.
.	8ff\J)	.
=143	=143	=143
4BB-/	(8dd\L	.
.	8ff\	.
4d 4B- 4F\	8een\	.
.	8ff\	.
4d 4B- 4F\	8gg\	.
.	8ff\J	.
=144	=144	=144
4BB-/	8een\L	.
.	8ff\	.
4c 4A 4F\	8ee-X\	.
.	8ff\	.
4e- 4A 4F\	8cc\	.
.	8ff\J)	.
=145	=145	=145
4BB-/	(8dd\L	<
.	8ff\	.
4d 4B- 4F\	8bb-\	.
.	8ccc\J	[[
4d 4B- 4F\	[4ddd\)	.
!!LO:LB:g=original
=146	=146	=146
*^	*	*
4r	2.G\	(8ddd\L]	.
.	.	8ccc#X\	.
4c#X 4B-/	.	8bb-\	.
.	.	8gg\J)	.
4c# 4B-/	.	[4een\	.
=147	=147	=147	=147
4r	4F\	(8ee\L]	.
.	.	8ff\	.
4d 4B-/	4r	8gg\	.
.	.	8ff\J	.
4d 4B-/	4r	[4bb-\)	.
*v	*v	*	*
=148	=148	=148
4FF/	(8bb-\L]	.
.	8aa\	.
4e- 4A 4F\	8ccc\	.
.	8gg\	.
4c 4A 4F\	8ff\	.
.	8ee-\J)	.
=149	=149	=149
4BB-/	(8dd\L	.
.	8ff\	.
4d 4B- 4F\	8een\	.
.	8ff\	.
4d 4B- 4F\	8gg\	.
.	8ff\J	.
=150	=150	=150
4BB-/	8een\L	.
.	8ff\	.
4c 4A 4F\	8ee-X\	.
.	8ff\	.
4e- 4A 4F\	8cc\	.
.	8ff\J)	.
!!LO:PB:g=original
=151	=151	=151
4BB-/	(8dd\L	.
.	8ff\	.
4d 4B- 4F\	8een\	.
.	8ff\	.
4d 4B- 4F\	8gg\	.
.	8ff\J	.
=152	=152	=152
4BB-/	8een\L	.
.	8ff\	.
4c 4A 4F\	8ee-X\	.
.	8ff\	.
4e- 4A 4F\	8cc\	.
.	8ff\J)	.
=153	=153	=153
4BB-/	(8dd\L	.
.	8ff\	.
4d 4B- 4F\	8bb-\	.
.	8ddd\J	.
4d 4B-\	([4fff [4ff^^\)	.
=154	=154	=154
*^	*	*
4r	2G\	8fff]L 8ff\]	.
.	.	8eeen\	.
4c#X 4B-/	.	8ddd-X\	.
.	.	8bb-\J	.
4c# 4B-/	4En\	[4gg^^\	.
=155	=155	=155	=155
4r	2.F\	8gg\L]	.
.	.	8ff\	.
4d 4B-/	.	8ccc\	.
.	.	8bb-\	.
4f 4B-/	.	8eee-X\	.
.	.	8ddd\J	.
!!LO:LB:g=original
=156	=156	=156	=156
4r	2.F\	8ccc\L	.
.	.	8aa\	.
4e- 4c/	.	8ff\	.
.	.	8ee-\	.
4c 4A/	.	8cc\	.
.	.	8ff\J)	.
*v	*v	*	*
=157	=157	=157
4B- 4F 4D 4BB-\	(8dd\L	f
.	8ee-\	.
4B- 4F 4D 4BB-\	8ff\	.
.	8gg\	.
4B- 4F 4D 4BB-\	8aa\	.
.	8bb-\J	.
=158	=158	=158
.	8qaa/	.
4c#X 4B- 4G 4En\	8gg\L	.
.	8ff#X\	.
4c# 4B- 4G 4E\	8gg\	.
.	8aa\	.
4c# 4B- 4G 4E\	8bb-\	.
.	8cccn\J	.
=159	=159	=159
4d 4B- 4F\	8ddd\L	f
.	8fff\	.
4r	8eee-\	.
.	8ddd\	.
4r	8ccc\	.
.	8bb-\J	.
=160	=160	=160
2.A 2.E- 2.C 2.FF/	8aa\L	.
.	8gg\	.
.	8ff\	.
.	8ee-\	.
.	8dd\	.
.	8cc\J)	.
!!LO:LB:g=original
=161	=161	=161
.	8qb-/	fp
4B- 4D 4BB-\	(4bb-^^\	.
4B- 4E- 4C\	8aa\L	.
.	8bb-\	.
4B- 4F 4D\	8aa-X\	.
.	8bb-\J	.
=162	=162	=162
4B- 4G 4E-\	8gg\L	.
.	8bb-\	.
4e- 4B- 4G\	8ee-\	.
.	8gg\	.
4f 4c 4A\	8ff\	.
.	8ee-\J	.
=163	=163	=163
4f 4d 4B-\	8dd\L	.
.	8ff\	.
4f 4d 4B-\	8b-\	.
.	8dd\	.
4en 4c 4B- 4G\	8cc\	.
.	8b-\J	.
=164	=164	=164
4F 4FF/	8a\L	.
.	8cc\	.
4e-X 4c 4F\	8ee-\	.
.	8ff\	.
4e- 4c 4F\	8aa\	.
.	8ccc\J)	.
=165	=165	=165
4B- 4D 4BB-\	(4bb-^\	.
!	!	!LO:HP:b:t=di-mi-nu-en-do:ext2=ud
4B- 4E- 4C\	8aa\L	>
.	8bb-\	.
4B- 4F 4D\	8aa-X\	.
.	8bb-\J	.
!!LO:LB:g=original
=166	=166	=166
4B- 4G-X 4E-\	8gg-X\L	.
.	8bb-\	.
4B- 4G- 4BB-\	8ee-\	.
.	8gg-\	.
4B- 4G- 4E-\	8ff\	.
.	8ee-\J	.
=167	=167	=167
4BB-'/	8dd-X\L	.
.	8ff\	.
4d-X 4B-'\	8b-\	.
.	8dd-\	.
4en 4B- 4Gn'\	8cc\	.
.	8b-\J	.
=168	=168	=168
4F'\	8a\L	.
.	8cc\	]
4f 4A'\	8ff\	.
.	8ee-X\	.
.	8qee-/	.
(8fL 8A\	8ddn\	.
8e-X\J)	8cc\J)	.
=169	=169	=169
!	!	!LO:HP:bLO:HP:b:t=di-mi-nu-en-do:ext2=ud
4BB-'/	(8b-\L	>
.	8ff\	.
4d 4B-'\	8een\	.
.	8ff\	.
4d 4F'\	8bb-\	.
.	8ff\J	.
=170	=170	=170
4BB-'/	8dd\L	.
.	8ff\	.
4d 4F'\	8een\	.
.	8ff\	.
4B- 4D'\	8bb-\	.
.	8ff\J)	.
!!LO:LB:g=original
=171	=171	=171
4BB-'/	8dd\L	.
.	8ff\	.
4d 4F'\	8een\	.
.	8ff\	.
4B- 4D'\	8bb-\	.
.	8ff\J	.
=172	=172	=172
4d: 4F: 4BB-':\	8dd\L	.
.	8ff\	.
4c#X 4E-'\	8gg\	.
.	8ff\	.
4cn 4E-X'\	8aa\	.
.	8ff\J	]]
=173	=173	=173
*ped	*	*
8B- 8D 8BB-'\	8bb-\	pp
8r	8r	.
4r	4r	.
4r	4r	.
=174	=174	=174
8B-:: 8F:: 8D'::\	8dd:: 8b-:: 8f:: 8d'::/	.
8r	8r	.
4r	4r	.
4r	4r	.
=175	=175	=175
8BB- 8BBB-'/	8B-'/	.
8r	8r	.
4r	4r	.
4r	4r	.
*clefG2	*	*
=176	=176	=176
*	*8va	*
8dd:: 8b-:: 8f:: 8d'::/	8bbb-'>:: 8fff:: 8bb-::\	.
*	*X8va	*
8r	8r	.
4r	4r	.
4r	4r	.
*clefF4	*	*
=177	=177	=177
*Xped	*	*
8BBB-'/	8B-'/	.
8r	8r	.
4r	4r	.
4r	4r	.
==	==	==
*-	*-	*-
!!!system-decoration: {(p1)}
!!!RDF**kern: > = above
!!!RDF**kern: < = below
!!!ENC: Berenika Jozajtis
!!!END: 2022-08-21
!!!ENC: Kamil Watkowski
!!!END: 2022-09-27
